contributed-vectors/pony_town.svg

<svg xmlns="http://www.w3.org/2000/svg" viewBox="0 0 192 192"><rect width="152" height="152" x="20" y="20" rx="10" style="fill:#98dc9a;stroke:none;opacity:1;stroke-linecap:round;stroke-linejoin:round;isolation:isolate"/><path d="M92 48v4h-8v4h-4v4h-4v4h-4v4h-4v8h-4v16h-4v16h-4v8h-4v4h4v4h12v12h4v16h4v4h4v-4h4v8h-4v4h-4v4h4v4h82c5.54 0 10-4.46 10-10v-18h-8v-4h-4v-4h4v-8h4v-8h4V80h-4v-4h-4v-4h-4v-4h-12v-4h-4v-4h-4v-4h-4v-4h-4v-4h-4v4h-12v-4H92z" style="opacity:1;vector-effect:none;fill:#fff;fill-opacity:1;fill-rule:evenodd;stroke:none;paint-order:stroke fill markers"/><path d="M68 84v8h-4v16h-4v8h-4v4h12v-4h4v20h4v16h4v-4h4v-4h4v16h-4v4h-4v4h16v-4h4v8h12v-20h-8v-20h-8V96H80V84H68z" style="opacity:1;vector-effect:none;fill:#c39a54;fill-opacity:1;fill-rule:evenodd;stroke:none;paint-order:stroke fill markers"/><path d="M92 52v4h-8v4h-4v4h-4v4h-4v8h-4v12h12V76h4v-4h4v-4h4v-4l24 24h4v4h8v4h12v4h8V68h-4v-4h-4v-4h-4v-4h-4v-4h-4v8h-4v-4h-8v-4z" style="opacity:1;vector-effect:none;fill:#71a372;fill-opacity:1;fill-rule:evenodd;stroke:none;paint-order:stroke fill markers"/><path d="M156 148v24h6c5.54 0 10-4.46 10-10v-14h-16z" style="opacity:1;vector-effect:none;fill:#d6c8ba;fill-opacity:1;fill-rule:evenodd;stroke:none;paint-order:stroke fill markers"/><path d="M144 136v16h16v-4h4v-4h-4v-4h-4v-4h-12zM160 104v8h-8v16h-4v8h12v-8h4v-8h4v-16h-8z" style="opacity:1;vector-effect:none;fill:#71a372;fill-opacity:1;fill-rule:evenodd;stroke:none;paint-order:stroke fill markers"/><path d="M144 136v16h16v-4h4v-4h-4v-4h-4v-4z" style="opacity:.25;vector-effect:none;fill:#000;fill-opacity:1;fill-rule:evenodd;stroke:none;paint-order:stroke fill markers"/><path d="M152 108v16h-4v12h8v-8h4v-8h4v-12h-12z" style="opacity:1;vector-effect:none;fill:#98dc9a;fill-opacity:1;fill-rule:evenodd;stroke:none;paint-order:stroke fill markers"/><path d="M144 72v40h16v-4h4v-4h4V80h-4v-4h-4v-4h-16z" style="opacity:1;vector-effect:none;fill:#d6c8ba;fill-opacity:1;fill-rule:evenodd;stroke:none;paint-order:stroke fill markers"/><path d="M92 56v4h-8v4h-4v4h-4v8h-4v12h52v-4h16v4h8V76h-4v-8h-4v-4h-4v4h-4v-4h-8v-4h-8v-4H92zm40 8h4v-4h-4v4z" style="opacity:1;vector-effect:none;fill:#98dc9a;fill-opacity:1;fill-rule:evenodd;stroke:none;paint-order:stroke fill markers"/><path d="M84 72v4h-8v4h-4v12h-4v16h-4v8h4v-4h4v-4h4v28h4v8h4v-12h4v12h4v16h-4v4h8v-4h4v-8h4v20h12v-44h-16V92h20v-8h-4v-4h-4v-4h-8v-4H84z" style="opacity:1;vector-effect:none;fill:#f9de81;fill-opacity:1;fill-rule:evenodd;stroke:none;paint-order:stroke fill markers"/><path d="M156 152v20h6c5.54 0 10-4.46 10-10v-10h-16z" style="opacity:1;vector-effect:none;fill:#fcecdc;fill-opacity:1;fill-rule:evenodd;stroke:none;paint-order:stroke fill markers"/><path d="M136 140v4h-12v4h-12v4h-4v20h52v-16h-4v-4h-4v-4h-4v-8h-12z" style="opacity:1;vector-effect:none;fill:#71a372;fill-opacity:1;fill-rule:evenodd;stroke:none;paint-order:stroke fill markers"/><path d="M136 140v4h-12v4h-12v4h-4v20h52v-16h-4v-4h-4v-4h-4v-8z" style="opacity:.25;vector-effect:none;fill:#000;fill-opacity:1;fill-rule:evenodd;stroke:none;paint-order:stroke fill markers"/><path d="M100 92v24h-8v20h8v4h8v4h8v8h8v-4h8v-4h8v-4h4v-4h4v-8h4V92h-52z" style="opacity:1;vector-effect:none;fill:#d6c8ba;fill-opacity:1;fill-rule:evenodd;stroke:none;paint-order:stroke fill markers"/><path d="M148 76v32h12v-4h4V80h-4v-4h-12z" style="opacity:1;vector-effect:none;fill:#fdf5d9;fill-opacity:1;fill-rule:evenodd;stroke:none;paint-order:stroke fill markers"/><path d="M152 80h4v16h-4z" style="opacity:1;vector-effect:none;fill:#d6c8ba;fill-opacity:1;fill-rule:evenodd;stroke:none;paint-order:stroke fill markers"/><path d="M124 88v4h-4v4h-8v-4h-8v8h-4v16h-4v16h4v4h8v4h20v-4h4v4h-4v4h-8v8h4v-4h8v-4h8v-8h4v-8h4v-16h4V96h-8v-4h-4v-4h-16z" style="opacity:1;vector-effect:none;fill:#fdf5d9;fill-opacity:1;fill-rule:evenodd;stroke:none;paint-order:stroke fill markers"/><path d="M92 88v4h20v-4H92zm20 4v4h8v-4h-8zm-20 0h-4v4h4v-4z" style="opacity:1;vector-effect:none;fill:#c39a54;fill-opacity:1;fill-rule:evenodd;stroke:none;paint-order:stroke fill markers"/><path d="M144 140v4h-4v4h-8v4h-8v4h12v-4h20v-4h4v-4h-4v-4h-12zm-8 16v4h-8v12h28v-16h-12v4h-4v-4h-4zm-12 0h-4v4h4v-4zm-12-4v4h4v-4h-4zm4 12v8h8v-8h-8z" style="opacity:1;vector-effect:none;fill:#71a372;fill-opacity:1;fill-rule:evenodd;stroke:none;paint-order:stroke fill markers"/><path d="M112 156h4v16h-4zM124 156h4v16h-4z" style="opacity:1;vector-effect:none;fill:#f9de81;fill-opacity:1;fill-rule:evenodd;stroke:none;paint-order:stroke fill markers"/><path d="M30 20c-5.54 0-10 4.46-10 10v38h4v4h28v4h4v4h4v4h4V68h4v-4h4V24h-4v-4H30z" style="opacity:1;vector-effect:none;fill:#71a372;fill-opacity:1;fill-rule:evenodd;stroke:none;paint-order:stroke fill markers"/><path d="M104 96v4h-4v4h-4v4h4v8h4v4h12V96h-12zm24 0v24h16v-4h4v-8h4v-4h-4v-4h-4v-4h-16z" style="opacity:1;vector-effect:none;fill:#56595b;fill-opacity:1;fill-rule:evenodd;stroke:none;paint-order:stroke fill markers"/><path d="M108 116h16v4h-16z" style="opacity:1;vector-effect:none;fill:#d6c8ba;fill-opacity:1;fill-rule:evenodd;stroke:none;paint-order:stroke fill markers"/><path d="M108 116h4v12h-4zM112 128h12v4h-12zM124 124h4v4h-4z" style="opacity:1;vector-effect:none;fill:#d6c8ba;fill-opacity:1;fill-rule:evenodd;stroke:none;paint-order:stroke fill markers"/><path d="M124 128v4h-8v4h12v-8h-4z" style="opacity:1;vector-effect:none;fill:#ba6561;fill-opacity:1;fill-rule:evenodd;stroke:none;paint-order:stroke fill markers"/><path d="M124 132h4v4h-4z" style="opacity:1;vector-effect:none;fill:#ff837d;fill-opacity:1;fill-rule:evenodd;stroke:none;paint-order:stroke fill markers"/><path d="M104 100h8v16h-8z" style="opacity:1;vector-effect:none;fill:#fff;fill-opacity:1;fill-rule:evenodd;stroke:none;paint-order:stroke fill markers"/><path d="M108 104h4v12h-4z" style="opacity:1;vector-effect:none;fill:#73ada4;fill-opacity:1;fill-rule:evenodd;stroke:none;paint-order:stroke fill markers"/><path d="M132 100h12v16h-12z" style="opacity:1;vector-effect:none;fill:#fff;fill-opacity:1;fill-rule:evenodd;stroke:none;paint-order:stroke fill markers"/><path d="M136 104h8v12h-8z" style="opacity:1;vector-effect:none;fill:#73ada4;fill-opacity:1;fill-rule:evenodd;stroke:none;paint-order:stroke fill markers"/><path d="M32 32v4h-4v16h4v4h4v4h20v-4h4V36h-4v-4H32z" style="opacity:1;vector-effect:none;fill:#ba6561;fill-opacity:1;fill-rule:evenodd;stroke:none;paint-order:stroke fill markers"/><path d="M40 24v4h4v8h4V24h-8z" style="opacity:1;vector-effect:none;fill:#56595b;fill-opacity:1;fill-rule:evenodd;stroke:none;paint-order:stroke fill markers"/><path d="M32 36v16h4v4h20V36h-8v4h-4v-4H32z" style="opacity:1;vector-effect:none;fill:#ff837d;fill-opacity:1;fill-rule:evenodd;stroke:none;paint-order:stroke fill markers"/><path d="M32 36h8v4h-8z" style="opacity:1;vector-effect:none;fill:#ffd6d4;fill-opacity:1;fill-rule:evenodd;stroke:none;paint-order:stroke fill markers"/><path d="M36 36h4v8h-4z" style="opacity:1;vector-effect:none;fill:#ffd6d4;fill-opacity:1;fill-rule:evenodd;stroke:none;paint-order:stroke fill markers"/></svg>

<?xml version="1.0" encoding="UTF-8" standalone="no"?>
<svg
   xmlns:dc="http://purl.org/dc/elements/1.1/"
   xmlns:cc="http://creativecommons.org/ns#"
   xmlns:rdf="http://www.w3.org/1999/02/22-rdf-syntax-ns#"
   xmlns:svg="http://www.w3.org/2000/svg"
   xmlns="http://www.w3.org/2000/svg"
   xmlns:sodipodi="http://sodipodi.sourceforge.net/DTD/sodipodi-0.dtd"
   xmlns:inkscape="http://www.inkscape.org/namespaces/inkscape"
   viewBox="0 0 192 192"
   version="1.1"
   id="svg16"
   sodipodi:docname="pony_town.svg"
   inkscape:version="0.92.4 (5da689c313, 2019-01-14)">
  <metadata
     id="metadata20">
    <rdf:RDF>
      <cc:Work
         rdf:about="">
        <dc:format>image/svg+xml</dc:format>
        <dc:type
           rdf:resource="http://purl.org/dc/dcmitype/StillImage" />
        <dc:title />
      </cc:Work>
    </rdf:RDF>
  </metadata>
  <sodipodi:namedview
     pagecolor="#ffffff"
     bordercolor="#666666"
     borderopacity="1"
     objecttolerance="10"
     gridtolerance="10"
     guidetolerance="10"
     inkscape:pageopacity="0"
     inkscape:pageshadow="2"
     inkscape:window-width="1920"
     inkscape:window-height="1017"
     id="namedview18"
     showgrid="true"
     inkscape:zoom="4.9166667"
     inkscape:cx="39.674801"
     inkscape:cy="101.84024"
     inkscape:window-x="-8"
     inkscape:window-y="-8"
     inkscape:window-maximized="1"
     inkscape:current-layer="svg16">
    <inkscape:grid
       type="xygrid"
       id="grid827"
       spacingx="4"
       spacingy="4" />
  </sodipodi:namedview>
  <defs
     id="defs4">
    <style
       id="style2">.a{fill:none;stroke:#b1b5bd;stroke-linecap:round;stroke-linejoin:round;isolation:isolate;opacity:0.63;}</style>
  </defs>
  <rect
     class="a"
     x="20"
     y="20"
     width="152"
     height="152"
     rx="10"
     id="rect6"
     style="fill:#98dc9a;stroke:none;opacity:1" />
  <path
     style="opacity:1;vector-effect:none;fill:#ffffff;fill-opacity:1;fill-rule:evenodd;stroke:none;paint-order:stroke fill markers"
     d="M 92 48 L 92 52 L 84 52 L 84 56 L 80 56 L 80 60 L 76 60 L 76 64 L 72 64 L 72 68 L 68 68 L 68 72 L 68 76 L 64 76 L 64 88 L 64 92 L 60 92 L 60 108 L 56 108 L 56 116 L 52 116 L 52 120 L 56 120 L 56 124 L 68 124 L 68 136 L 72 136 L 72 152 L 76 152 L 76 156 L 80 156 L 80 152 L 84 152 L 84 160 L 80 160 L 80 164 L 76 164 L 76 168 L 80 168 L 80 172 L 162 172 C 167.54 172 172 167.54 172 162 L 172 160 L 172 144 L 164 144 L 164 140 L 160 140 L 160 136 L 164 136 L 164 128 L 168 128 L 168 120 L 172 120 L 172 116 L 172 80 L 168 80 L 168 76 L 164 76 L 164 72 L 160 72 L 160 68 L 148 68 L 148 64 L 144 64 L 144 60 L 140 60 L 140 56 L 136 56 L 136 52 L 132 52 L 132 48 L 128 48 L 128 52 L 116 52 L 116 48 L 92 48 z "
     id="rect829" />
  <path
     style="opacity:1;vector-effect:none;fill:#c39a54;fill-opacity:1;fill-rule:evenodd;stroke:none;paint-order:stroke fill markers"
     d="M 68 84 L 68 92 L 64 92 L 64 108 L 60 108 L 60 116 L 56 116 L 56 120 L 60 120 L 68 120 L 68 116 L 72 116 L 72 136 L 76 136 L 76 152 L 80 152 L 80 148 L 84 148 L 84 144 L 88 144 L 88 160 L 84 160 L 84 164 L 80 164 L 80 168 L 88 168 L 96 168 L 96 164 L 100 164 L 100 172 L 112 172 L 112 152 L 104 152 L 104 144 L 104 132 L 96 132 L 96 96 L 80 96 L 80 84 L 68 84 z "
     id="rect871" />
  <path
     style="opacity:1;vector-effect:none;fill:#71a372;fill-opacity:1;fill-rule:evenodd;stroke:none;paint-order:stroke fill markers"
     d="m 92,52 v 4 h -8 v 4 h -4 v 4 h -4 v 4 h -4 v 8 h -4 v 12 h 12 v -4 -8 h 4 v -4 h 4 v -4 h 4 v -4 l 24,24 h 4 v 4 h 8 v 4 h 12 v 4 h 8 V 68 h -4 v -4 h -4 v -4 h -4 v -4 h -4 v -4 h -4 v 4 4 h -4 v -4 h -8 v -4 z"
     id="rect898"
     inkscape:connector-curvature="0"
     sodipodi:nodetypes="cccccccccccccccccccccccccccccccccccccccccccccc" />
  <path
     style="opacity:1;vector-effect:none;fill:#d6c8ba;fill-opacity:1;fill-rule:evenodd;stroke:none;paint-order:stroke fill markers"
     d="M 156 148 L 156 172 L 162 172 C 167.54 172 172 167.54 172 162 L 172 148 L 156 148 z "
     id="rect954" />
  <path
     style="opacity:1;vector-effect:none;fill:#71a372;fill-opacity:1;fill-rule:evenodd;stroke:none;paint-order:stroke fill markers"
     d="M 144 136 L 144 152 L 156 152 L 160 152 L 160 148 L 164 148 L 164 144 L 160 144 L 160 140 L 156 140 L 156 136 L 144 136 z "
     id="rect925" />
  <path
     style="opacity:1;vector-effect:none;fill:#71a372;fill-opacity:1;fill-rule:evenodd;stroke:none;paint-order:stroke fill markers"
     d="M 160 104 L 160 112 L 152 112 L 152 120 L 152 128 L 148 128 L 148 136 L 160 136 L 160 128 L 164 128 L 164 120 L 168 120 L 168 112 L 168 104 L 160 104 z "
     id="rect934" />
  <path
     inkscape:connector-curvature="0"
     style="opacity:0.25;vector-effect:none;fill:#000000;fill-opacity:1;fill-rule:evenodd;stroke:none;paint-order:stroke fill markers"
     d="m 144,136 v 16 h 12 4 v -4 h 4 v -4 h -4 v -4 h -4 v -4 z"
     id="rect925-9" />
  <path
     style="opacity:1;vector-effect:none;fill:#98dc9a;fill-opacity:1;fill-rule:evenodd;stroke:none;paint-order:stroke fill markers"
     d="M 152 108 L 152 120 L 152 124 L 148 124 L 148 136 L 156 136 L 156 128 L 160 128 L 160 120 L 164 120 L 164 108 L 152 108 z "
     id="rect1108" />
  <path
     style="opacity:1;vector-effect:none;fill:#d6c8ba;fill-opacity:1;fill-rule:evenodd;stroke:none;paint-order:stroke fill markers"
     d="M 144 72 L 144 112 L 160 112 L 160 108 L 164 108 L 164 104 L 168 104 L 168 80 L 164 80 L 164 76 L 160 76 L 160 72 L 144 72 z "
     id="rect943" />
  <path
     style="opacity:1;vector-effect:none;fill:#98dc9a;fill-opacity:1;fill-rule:evenodd;stroke:none;paint-order:stroke fill markers"
     d="M 92 56 L 92 60 L 84 60 L 84 64 L 80 64 L 80 68 L 76 68 L 76 76 L 72 76 L 72 88 L 124 88 L 124 84 L 140 84 L 140 88 L 148 88 L 148 76 L 144 76 L 144 68 L 140 68 L 140 64 L 136 64 L 136 68 L 132 68 L 132 64 L 124 64 L 124 60 L 116 60 L 116 56 L 92 56 z M 132 64 L 136 64 L 136 60 L 132 60 L 132 64 z "
     id="rect992" />
  <path
     style="opacity:1;vector-effect:none;fill:#f9de81;fill-opacity:1;fill-rule:evenodd;stroke:none;paint-order:stroke fill markers"
     d="M 84 72 L 84 76 L 76 76 L 76 80 L 72 80 L 72 92 L 68 92 L 68 108 L 64 108 L 64 116 L 68 116 L 68 112 L 72 112 L 72 108 L 76 108 L 76 136 L 80 136 L 80 144 L 84 144 L 84 132 L 88 132 L 88 144 L 92 144 L 92 152 L 92 160 L 88 160 L 88 164 L 96 164 L 96 160 L 100 160 L 100 152 L 104 152 L 104 172 L 116 172 L 116 148 L 116 140 L 116 128 L 100 128 L 100 92 L 112 92 L 116 92 L 120 92 L 120 84 L 116 84 L 116 80 L 112 80 L 112 76 L 104 76 L 104 72 L 84 72 z "
     id="rect956" />
  <path
     style="opacity:1;vector-effect:none;fill:#fcecdc;fill-opacity:1;fill-rule:evenodd;stroke:none;paint-order:stroke fill markers"
     d="M 156 152 L 156 172 L 162 172 C 167.54 172 172 167.54 172 162 L 172 152 L 156 152 z "
     id="rect1106" />
  <path
     style="opacity:1;vector-effect:none;fill:#71a372;fill-opacity:1;fill-rule:evenodd;stroke:none;paint-order:stroke fill markers"
     d="M 136 140 L 136 144 L 124 144 L 124 148 L 116 148 L 112 148 L 112 152 L 108 152 L 108 172 L 152 172 L 156 172 L 160 172 L 160 156 L 156 156 L 156 152 L 152 152 L 152 148 L 148 148 L 148 144 L 148 140 L 136 140 z "
     id="rect1067" />
  <path
     inkscape:connector-curvature="0"
     style="opacity:0.25;vector-effect:none;fill:#000000;fill-opacity:1;fill-rule:evenodd;stroke:none;paint-order:stroke fill markers"
     d="m 136,140 v 4 h -12 v 4 h -8 -4 v 4 h -4 v 20 h 44 4 4 v -16 h -4 v -4 h -4 v -4 h -4 v -4 -4 z"
     id="rect1067-1" />
  <path
     style="opacity:1;vector-effect:none;fill:#d6c8ba;fill-opacity:1;fill-rule:evenodd;stroke:none;paint-order:stroke fill markers"
     d="M 100 92 L 100 116 L 92 116 L 92 136 L 100 136 L 100 140 L 108 140 L 108 144 L 116 144 L 116 152 L 124 152 L 124 148 L 132 148 L 132 144 L 140 144 L 140 140 L 144 140 L 144 136 L 148 136 L 148 128 L 152 128 L 152 92 L 100 92 z "
     id="rect1021" />
  <path
     style="opacity:1;vector-effect:none;fill:#fdf5d9;fill-opacity:1;fill-rule:evenodd;stroke:none;paint-order:stroke fill markers"
     d="M 148 76 L 148 108 L 160 108 L 160 104 L 164 104 L 164 80 L 160 80 L 160 76 L 148 76 z "
     id="rect1013" />
  <rect
     style="opacity:1;vector-effect:none;fill:#d6c8ba;fill-opacity:1;fill-rule:evenodd;stroke:none;paint-order:stroke fill markers"
     id="rect1011"
     width="4"
     height="16"
     x="152"
     y="80" />
  <path
     style="opacity:1;vector-effect:none;fill:#fdf5d9;fill-opacity:1;fill-rule:evenodd;stroke:none;paint-order:stroke fill markers"
     d="M 124 88 L 124 92 L 120 92 L 120 96 L 112 96 L 112 92 L 104 92 L 104 100 L 100 100 L 100 116 L 96 116 L 96 132 L 100 132 L 100 136 L 108 136 L 108 140 L 128 140 L 128 136 L 132 136 L 132 140 L 128 140 L 128 144 L 124 144 L 120 144 L 120 148 L 120 152 L 124 152 L 124 148 L 128 148 L 132 148 L 132 144 L 140 144 L 140 136 L 144 136 L 144 132 L 144 128 L 148 128 L 148 112 L 152 112 L 152 96 L 144 96 L 144 92 L 140 92 L 140 88 L 124 88 z "
     id="rect1034" />
  <path
     style="opacity:1;vector-effect:none;fill:#c39a54;fill-opacity:1;fill-rule:evenodd;stroke:none;paint-order:stroke fill markers"
     d="M 92 88 L 92 92 L 112 92 L 112 88 L 92 88 z M 112 92 L 112 96 L 120 96 L 120 92 L 112 92 z M 92 92 L 88 92 L 88 96 L 92 96 L 92 92 z "
     id="rect1059" />
  <path
     style="opacity:1;vector-effect:none;fill:#71a372;fill-opacity:1;fill-rule:evenodd;stroke:none;paint-order:stroke fill markers"
     d="M 144 140 L 144 144 L 140 144 L 140 148 L 132 148 L 132 152 L 124 152 L 124 156 L 136 156 L 136 152 L 156 152 L 156 148 L 160 148 L 160 144 L 156 144 L 156 140 L 144 140 z M 136 156 L 136 160 L 128 160 L 128 172 L 156 172 L 156 160 L 156 156 L 144 156 L 144 160 L 140 160 L 140 156 L 136 156 z M 124 156 L 120 156 L 120 160 L 124 160 L 124 156 z M 112 152 L 112 156 L 116 156 L 116 152 L 112 152 z M 116 164 L 116 172 L 124 172 L 124 164 L 116 164 z "
     id="rect1081" />
  <rect
     style="opacity:1;vector-effect:none;fill:#f9de81;fill-opacity:1;fill-rule:evenodd;stroke:none;paint-order:stroke fill markers"
     id="rect1102"
     width="4"
     height="16"
     x="112"
     y="156" />
  <rect
     style="opacity:1;vector-effect:none;fill:#f9de81;fill-opacity:1;fill-rule:evenodd;stroke:none;paint-order:stroke fill markers"
     id="rect1104"
     width="4"
     height="16"
     x="124"
     y="156" />
  <path
     style="opacity:1;vector-effect:none;fill:#71a372;fill-opacity:1;fill-rule:evenodd;stroke:none;paint-order:stroke fill markers"
     d="M 30 20 C 24.46 20 20 24.46 20 30 L 20 64 L 20 68 L 24 68 L 24 72 L 52 72 L 52 76 L 56 76 L 56 80 L 60 80 L 60 84 L 64 84 L 64 80 L 64 76 L 64 72 L 64 68 L 68 68 L 68 64 L 72 64 L 72 24 L 68 24 L 68 20 L 30 20 z "
     id="rect1195" />
  <path
     style="opacity:1;vector-effect:none;fill:#56595b;fill-opacity:1;fill-rule:evenodd;stroke:none;paint-order:stroke fill markers"
     d="M 104 96 L 104 100 L 100 100 L 100 104 L 96 104 L 96 108 L 100 108 L 100 116 L 104 116 L 104 120 L 116 120 L 116 96 L 104 96 z M 128 96 L 128 120 L 144 120 L 144 116 L 148 116 L 148 108 L 152 108 L 152 104 L 148 104 L 148 100 L 144 100 L 144 96 L 128 96 z "
     id="rect1134" />
  <rect
     style="opacity:1;vector-effect:none;fill:#d6c8ba;fill-opacity:1;fill-rule:evenodd;stroke:none;paint-order:stroke fill markers"
     id="rect1147"
     width="16"
     height="4"
     x="108"
     y="116" />
  <rect
     style="opacity:1;vector-effect:none;fill:#d6c8ba;fill-opacity:1;fill-rule:evenodd;stroke:none;paint-order:stroke fill markers"
     id="rect1149"
     width="4"
     height="12"
     x="108"
     y="116" />
  <rect
     style="opacity:1;vector-effect:none;fill:#d6c8ba;fill-opacity:1;fill-rule:evenodd;stroke:none;paint-order:stroke fill markers"
     id="rect1151"
     width="12"
     height="4"
     x="112"
     y="128" />
  <rect
     style="opacity:1;vector-effect:none;fill:#d6c8ba;fill-opacity:1;fill-rule:evenodd;stroke:none;paint-order:stroke fill markers"
     id="rect1153"
     width="4"
     height="4"
     x="124"
     y="124" />
  <path
     style="opacity:1;vector-effect:none;fill:#ba6561;fill-opacity:1;fill-rule:evenodd;stroke:none;paint-order:stroke fill markers"
     d="M 124 128 L 124 132 L 116 132 L 116 136 L 124 136 L 128 136 L 128 132 L 128 128 L 124 128 z "
     id="rect1155" />
  <rect
     style="opacity:1;vector-effect:none;fill:#ff837d;fill-opacity:1;fill-rule:evenodd;stroke:none;paint-order:stroke fill markers"
     id="rect1160"
     width="4"
     height="4"
     x="124"
     y="132" />
  <rect
     style="opacity:1;vector-effect:none;fill:#ffffff;fill-opacity:1;fill-rule:evenodd;stroke:none;paint-order:stroke fill markers"
     id="rect1162"
     width="8"
     height="16"
     x="104"
     y="100" />
  <rect
     style="opacity:1;vector-effect:none;fill:#73ada4;fill-opacity:1;fill-rule:evenodd;stroke:none;paint-order:stroke fill markers"
     id="rect1164"
     width="4"
     height="12"
     x="108"
     y="104" />
  <rect
     style="opacity:1;vector-effect:none;fill:#ffffff;fill-opacity:1;fill-rule:evenodd;stroke:none;paint-order:stroke fill markers"
     id="rect1166"
     width="12"
     height="16"
     x="132"
     y="100" />
  <rect
     style="opacity:1;vector-effect:none;fill:#73ada4;fill-opacity:1;fill-rule:evenodd;stroke:none;paint-order:stroke fill markers"
     id="rect1168"
     width="8"
     height="12"
     x="136"
     y="104" />
  <path
     style="opacity:1;vector-effect:none;fill:#ba6561;fill-opacity:1;fill-rule:evenodd;stroke:none;paint-order:stroke fill markers"
     d="M 32 32 L 32 36 L 28 36 L 28 52 L 32 52 L 32 56 L 36 56 L 36 60 L 56 60 L 56 56 L 60 56 L 60 36 L 56 36 L 56 32 L 32 32 z "
     id="rect1170" />
  <path
     style="opacity:1;vector-effect:none;fill:#56595b;fill-opacity:1;fill-rule:evenodd;stroke:none;paint-order:stroke fill markers"
     d="M 40 24 L 40 28 L 44 28 L 44 36 L 48 36 L 48 28 L 48 24 L 44 24 L 40 24 z "
     id="rect1178" />
  <path
     style="opacity:1;vector-effect:none;fill:#ff837d;fill-opacity:1;fill-rule:evenodd;stroke:none;paint-order:stroke fill markers"
     d="M 32 36 L 32 52 L 36 52 L 36 56 L 56 56 L 56 44 L 56 40 L 56 36 L 48 36 L 48 40 L 44 40 L 44 36 L 32 36 z "
     id="rect1184" />
  <rect
     style="opacity:1;vector-effect:none;fill:#ffd6d4;fill-opacity:1;fill-rule:evenodd;stroke:none;paint-order:stroke fill markers"
     id="rect1191"
     width="8"
     height="4"
     x="32"
     y="36" />
  <rect
     style="opacity:1;vector-effect:none;fill:#ffd6d4;fill-opacity:1;fill-rule:evenodd;stroke:none;paint-order:stroke fill markers"
     id="rect1193"
     width="4"
     height="8"
     x="36"
     y="36" />
</svg>
